X:249
T:What A Friend We Have In Jesus
%%stretchlast false
M:4/4
L:1/4
K:Eb clef=C1
"^I"[EGeb]3/2 [EGeb]/ "^IV²"[EAec']/ "^I"[EGeb]/ [EBeg]/ [EGBe]/ | "^IV"[A,Ace]2 [A,EAc]2 | "^I"[EGB]3/2 [EGBe]/ [EGBg]/ [EGBe]/ [EGeb]/ [EBeg]/ | "^V"[B,Bdf]3 "^i"[Ee] | "^I"[EGeb]/ [EGeb]/ [EGeb]/ [EGeb]/ "^IV²"[EAec']/ "^I"[EGBb]/ "^vi+²"[A,Bcg]/ "^IVmaj7"[A,Gce]/ | "^IV"[A,Ace] "^i¹"[A,Ae] "^IV"[A,EAc] "^vi7³"[B,EGc] | "^I²"[B,EGB]/ "^i"[B,EB]/ [B,EBe]/ "^I²"[B,GBe]/ "^iii¹"[B,Bg]/ "^♯iii"[B,ABf]/ "^I"[EGBe]/ "^V"[EFBd]/ | "^I"[EGBe]2 "^Imaj7²"[B,Gde]3/2 "^♯vi"[B,_d]/ | "^V"[B,Bdf]/ [B,Bef]/ "^v"[B,Bf]/ "^♯i"[B,Bd=e]/ "^i"[EBef]/ "^I"[EBeg]/ [EBea]/ [EBef]/ | [EBeg]2 "^I¹"[GAeb]3/2 [GAeb]/ | "^IVmaj7³"[GAec']/ "^IV²"[EAec']/ "^viiø7"[DAfc']/ "^IV²"[EAec']/ "^V"[Bdb]/ "^iii¹"[Bdg]/ "^♯iii°"[Bda]/ "^iii¹"[Bdg]/ | "^V"[Bdf] "^i"[EBef]3/2 [EBef]/ [Ee]/ [Ee]/ | "^I"[EGeb]/ [EGBb]/ "^vi+²"[A,Gcb]/ [A,Gcb]/ "^vi+"[A,Acc']/ "^vi+²"[A,Gcb]/ "^♯iii"[A,ABg]/ "^i¹"[A,GAe]/ | [A,Ae] "^I²"[B,GAe] "^vi7³"[B,EGc]/ [B,EBc]/ [B,Ece]/ [B,EBc]/ | "^i"[B,EB]/ [B,EB]/ [EB]/ "^I"[EGBe]/ [EBg]/ "^i"[EABf]/ "^I"[EGBe]/ "^V"[EFBd]/ | "^I¹"[Ge]3 |]
